plasma/desktoptheme/Arc-Dark/icons/bookmarks.svg

<svg xmlns="http://www.w3.org/2000/svg" width="32" height="32" version="1.1">
 <g id="bookmarks">
  <rect style="opacity:0.001" width="32" height="32" x="0" y="0"/>
  <path style="fill:#d3dae3" d="M 9.9570312 2 C 5.5629267 2 2 6.1162805 2 11.193359 C 2 12.557477 2.2089285 13.869485 2.5742188 15.123047 C 2.5742188 15.123047 2.9057869 16.25431 3.1992188 16.876953 C 6.5528775 24.837929 16 30 16 30 C 16 30 25.447122 24.837929 28.800781 16.876953 C 29.094213 16.25431 29.425781 15.123047 29.425781 15.123047 C 29.791071 13.869485 30 12.557477 30 11.193359 C 30 6.1162805 26.437073 2 22.042969 2 C 19.738504 2 17.453413 3.1910383 16 5 C 14.546587 3.1910383 12.261496 2 9.9570312 2 z M 9.9570312 5 C 11.227817 5 12.767613 5.7655887 13.662109 6.8789062 L 16 9.7890625 L 18.337891 6.8789062 C 19.232387 5.7655888 20.772183 5 22.042969 5 C 24.563526 5 27 7.5198151 27 11.193359 C 27 12.251156 26.838875 13.274446 26.544922 14.283203 C 26.542522 14.290403 26.155269 15.454683 26.087891 15.597656 L 26.060547 15.654297 L 26.035156 15.712891 C 23.704555 21.245306 17.96869 25.08024 16 26.333984 C 14.031309 25.08024 8.2954396 21.245301 5.9648438 15.712891 L 5.9394531 15.654297 L 5.9121094 15.597656 C 5.8447311 15.454678 5.4574978 14.290453 5.4550781 14.283203 C 5.1611248 13.274447 5 12.251157 5 11.193359 C 5 7.5198149 7.4364734 5 9.9570312 5 z"/>
 </g>
</svg>

<?xml version="1.0" encoding="UTF-8"?>
<svg width="32" height="32" version="1.1" xmlns="http://www.w3.org/2000/svg">
 <g id="bookmarks">
  <rect width="32" height="32" opacity=".001"/>
  <path d="m9.957 2c-4.3941 0-7.957 4.1163-7.957 9.1934 0 1.3641 0.20893 2.6761 0.57422 3.9297 0 0 0.33157 1.1313 0.625 1.7539 3.3537 7.961 12.801 13.123 12.801 13.123s9.4471-5.1621 12.801-13.123c0.29343-0.62264 0.625-1.7539 0.625-1.7539 0.36529-1.2536 0.57422-2.5656 0.57422-3.9297 0-5.0771-3.5629-9.1934-7.957-9.1934-2.3045 0-4.5896 1.191-6.043 3-1.4534-1.809-3.7385-3-6.043-3zm0 3c1.2708 0 2.8106 0.76559 3.7051 1.8789l2.3379 2.9102 2.3379-2.9102c0.8945-1.1133 2.4343-1.8789 3.7051-1.8789 2.5206 0 4.957 2.5198 4.957 6.1934 0 1.0578-0.16112 2.0811-0.45508 3.0898-0.0024 0.0072-0.38965 1.1715-0.45703 1.3145l-0.027344 0.056641-0.025391 0.058594c-2.3306 5.5324-8.0665 9.3673-10.035 10.621-1.9687-1.2537-7.7046-5.0887-10.035-10.621l-0.025391-0.058594-0.027344-0.056641c-0.067378-0.14298-0.45461-1.3072-0.45703-1.3145-0.29395-1.0088-0.45508-2.032-0.45508-3.0898 0-3.6735 2.4365-6.1934 4.957-6.1934z" fill="#d3dae3"/>
 </g>
</svg>
